X: 463
T: Charleston No.3
C:Willie Narmour, 1930
B: jims roots
M:C|
L:1/8
Q: 1/4=100
K:C
V:1 
ed || "C"c2C2 C2DF | ECDE cdec | "G"d2D2 {c}[Dd][Dd][Dd]c | BGBd g2("4"a"4"c')- |
"C"c'age "2"aged | "F"egfe dcBA | "G"GcBd cedc | "C"e2cc c2"4 slide"e-d- ||
"C"c2CC CCDF | ECEG cdec | "G"d2D2 D2dc | BGBd g2("4"a"4"c')- |
"C"c'age "2"aged | "F"egfe dcBA | "G"GcBd cedc | "C"e2 [Ec][Ec] [Ec]AEF ||
|:"C"G2cG A2cA | "F"AGF2- FAcd | "Dm"[F2d2][F2d2]dedc | "G"B2[G2B] [GB][GB][G2B] |
"F"[f2A]a2 g2e2 | "Dm"fgfe dcBA | "G"GcBd cedc | [1 "C"e2[E2c] [Ec][Ec]EF :| [2 "C"e2c2 {d}[ee][ee] ||
% abcbook-tune_id 6298c245aaa00bce64f9e380


% abcbook-boost 0
% abcbook-tablature 
% abcbook-transpose 
% abcbook-lastupdated 1654178373672
% abcbook-soundfonts 
% abcbook-repeats 1


